X: 953
T: Dick Sand's hornpipe
C: anon.
O: Ireland
B: Francis O'Neill: "The Dance Music of Ireland" (1907) no. 953
R: Hornpipe
Z: Transcribed by Frank Nordberg - http://www.musicaviva.com
F: http://www.musicaviva.com/abc/tunes/ireland/oneill-1001/oneill-1001-095
3.abc
M: C
L: 1/8
K: G
(3(def)|ggd(B GB)ed|cBAG FADF|G(ABc) dBGB|A(dce) d2(3(def)|ggd(B GB)ed|cB
AG FADF|G(BdB) ecA(F|G2)GFG2:|
|:(cB)|ABA(G FD)EF|G(ABc) dBGB|c(Bcd) e(dcB)Adce d2 (3(def)|(3(gag) (dB)
(3(efe) (cA)|(3(ded) Bd (cA)FA|GBd(B ec)A(F|G2)GF G2:|
W:
W:
W: From Musica Viva - http://www.musicaviva.com
W: the Internet center for free sheet music downloads.


